assets/icons/icon-arrow__left/web/icon-arrow__left.svg

<?xml version="1.0" encoding="UTF-8" standalone="no"?>
<svg width="48px" height="48px" viewBox="0 0 48 48" version="1.1" xmlns="http://www.w3.org/2000/svg" xmlns:xlink="http://www.w3.org/1999/xlink">
    <!-- Generator: Sketch 45.2 (43514) - http://www.bohemiancoding.com/sketch -->
    <title>icon-arrow__left</title>
    <desc>Created with Sketch.</desc>
    <defs></defs>
    <g id="Symbols" stroke="none" stroke-width="1" fill="none" fill-rule="evenodd">
        <g id="icon-arrow__left" fill="#2D2D2D">
            <path d="M12.3150516,24.948759 L18.3629555,31.2115468 C18.7460302,31.6082322 18.7372839,32.2381437 18.3372337,32.6244677 C17.9399533,33.0081169 17.3070417,32.9972291 16.9242759,32.6008636 L9.28095313,24.6859711 C9.08269666,24.4806705 8.98938852,24.2129009 9.00095705,23.948759 C8.98938852,23.6846171 9.08269666,23.4168474 9.28095313,23.2115468 L16.9242759,15.2966544 C17.3070417,14.9002888 17.9399533,14.889401 18.3372337,15.2730503 C18.7372839,15.6593742 18.7460302,16.2892857 18.3629555,16.6859711 L12.3150516,22.948759 L37.3254195,22.948759 C37.8757905,22.948759 38.3219543,23.3926238 38.3219543,23.948759 C38.3219543,24.5010437 37.8821412,24.948759 37.3254195,24.948759 L12.3150516,24.948759 Z"></path>
        </g>
    </g>
</svg>

<svg width="48" height="48" viewBox="0 0 48 48" xmlns="http://www.w3.org/2000/svg"><title>icon-arrow__left</title><path d="M12.315 24.949l6.048 6.263a1 1 0 1 1-1.439 1.39l-7.643-7.916a.995.995 0 0 1-.28-.737.995.995 0 0 1 .28-.737l7.643-7.915a1 1 0 0 1 1.439 1.389l-6.048 6.263h25.01c.55 0 .997.444.997 1 0 .552-.44 1-.997 1h-25.01z" fill="#2D2D2D" fill-rule="evenodd"/></svg>
